icon-svg/unifi.svg

<?xml version="1.0" encoding="UTF-8" standalone="no"?>
<svg width="24" height="24" viewBox="0 0 24 24" fill="#44739e" version="1.1" id="svg7392"
    xmlns="http://www.w3.org/2000/svg"
    xmlns:svg="http://www.w3.org/2000/svg">
    <path d="M 11.752381,8.3608625 C 11.166453,9.1700642 10.915304,10.090775 10.803796,10.788468 H 9.5759311 C 9.6876934,9.9513886 9.9943433,8.7516515 10.775665,7.6634235 c 1.004593,-1.4230089 2.874141,-2.567245 5.88767,-2.483613 L 16.412186,6.379801 c -2.566985,0 -3.878481,0.9207109 -4.659805,1.9810615 z m 4.464463,-1.0602494 -0.25115,1.227868 c -1.339121,0.083632 -2.03681,0.6416847 -2.483353,1.227361 -0.250895,0.3350339 -0.390534,0.6976929 -0.502044,1.0606039 h -1.227865 c 0.11151,-0.530428 0.33478,-1.1442359 0.753193,-1.7577895 0.641935,-0.9490951 1.869548,-1.7022888 3.711219,-1.7580434 z m -2.23213,3.5158329 c 0.08363,-0.167517 0.139385,-0.251149 0.250895,-0.418666 0.279279,-0.4186661 0.72582,-0.7534471 1.479014,-0.8092018 l -0.279027,1.2278678 z m 8.51018,-1.2277918 c 0,0 0.976716,0.2232719 1.004593,1.2278678 H 22.215868 Z M 6.0044285,9.6166323 H 7.4555644 L 6.0880599,15.978484 c -0.4462886,2.09257 -1.646023,2.846016 -3.3759313,2.846016 -1.75803879,0 -2.62299291,-0.753446 -2.17645059,-2.846016 L 1.9026755,9.5887556 H 3.3538114 L 1.9586836,16.089992 c -0.2511485,1.143984 0.1117624,1.646281 0.9767165,1.646281 0.8649541,0 1.4227516,-0.502297 1.6739001,-1.646281 L 6.0044285,9.5887556 Z m 5.1621265,2.0368417 c 1.032218,0 1.590269,0.474167 1.283366,1.869552 L 11.361949,18.65701 H 9.9944439 l 1.0045951,-4.687694 c 0.167516,-0.892833 0,-1.227614 -0.697438,-1.227614 -0.5580518,0 -1.1721109,0.446543 -1.3675049,1.339125 L 7.9855105,18.629132 H 6.6185127 L 8.069142,11.820737 h 1.2836194 l -0.1672632,0.809455 h 0.027877 c 0.4741664,-0.61406 1.1997338,-0.976718 1.9531798,-0.976718 z m 2.706549,0.167289 h 1.367249 l -1.450882,6.836274 h -1.367504 z m 3.571528,1.506716 h 3.181044 l -0.251149,1.199737 H 17.193483 L 16.3004,18.656857 h -1.450631 l 1.95318,-9.068228 h 4.631673 l -0.278773,1.227868 h -3.181043 z m 3.125035,5.329455 1.423006,-6.836273 h 1.395128 l -1.450882,6.836274 z"/>
</svg>

<svg xmlns="http://www.w3.org/2000/svg" fill="#44739e" viewBox="0 0 24 24"><path d="M11.7524 8.3609c-.586.8092-.8371 1.7299-.9486 2.4276H9.5759c.1118-.8371.4184-2.0368 1.1998-3.125 1.0046-1.423 2.8741-2.5673 5.8876-2.4837l-.2511 1.2c-2.567 0-3.8785.9207-4.6598 1.981m4.4644-1.0603-.2511 1.2279c-1.3391.0836-2.0368.6417-2.4834 1.2273-.2509.335-.3905.6977-.502 1.0606h-1.2279c.1115-.5304.3348-1.1442.7532-1.7577.642-.9491 1.8696-1.7023 3.7112-1.758m-2.232 3.5158c.0835-.1675.1393-.2511.2508-.4186.2793-.4187.7258-.7535 1.479-.8092l-.279 1.2278zm8.51-1.2277s.9768.2232 1.0047 1.2278h-1.2836Zm-16.4904.028h1.4512L6.088 15.9784c-.4463 2.0926-1.646 2.846-3.376 2.846-1.758 0-2.623-.7534-2.1764-2.846l1.367-6.3897h1.4511L1.9587 16.09c-.2512 1.144.1117 1.6463.9767 1.6463s1.4228-.5023 1.6739-1.6463l1.3951-6.5012Zm5.1622 2.0368c1.0322 0 1.5902.4741 1.2833 1.8695l-1.088 5.134H9.9944l1.0046-4.6877c.1676-.8928 0-1.2276-.6974-1.2276-.558 0-1.1721.4465-1.3675 1.3391l-.9486 4.5483h-1.367l1.4506-6.8084h1.2837l-.1673.8095h.0279c.4741-.614 1.1997-.9767 1.9532-.9767m2.7065.1673h1.3673l-1.451 6.8362H12.422zm3.5715 1.5067h3.181l-.251 1.1997h-3.1811l-.8931 4.1297h-1.4506l1.9531-9.0683h4.6317l-.2788 1.2279h-3.181zm3.125 5.3294 1.423-6.8362h1.3952l-1.4509 6.8362z"/></svg>
